src/assets/tokens/TOKEN_LIST.svg

<svg height="44" viewBox="0 0 58 44" width="58" xmlns="http://www.w3.org/2000/svg"><path d="m0 20.3076923h17.0588235v-20.3076923h-17.0588235zm0 23.6923077h17.0588235v-20.3076923h-17.0588235zm20.4705882 0h17.0588236v-20.3076923h-17.0588236zm20.4705883 0h17.0588235v-20.3076923h-17.0588235zm-20.4705883-23.6923077h17.0588236v-20.3076923h-17.0588236zm20.4705883-20.3076923v20.3076923h17.0588235v-20.3076923z" fill="#fff"/></svg>

<?xml version="1.0" encoding="UTF-8"?>
<svg width="58px" height="44px" viewBox="0 0 58 44" version="1.1" xmlns="http://www.w3.org/2000/svg" xmlns:xlink="http://www.w3.org/1999/xlink">
    <defs></defs>
    <g stroke="none" stroke-width="1" fill="none" fill-rule="evenodd">
        <g id="token-select" transform="translate(-1149.000000, -340.000000)" fill="#FFFFFF" fill-rule="nonzero">
            <g id="#1---Home" transform="translate(237.000000, 149.000000)">
                <g id="#-2---Pick-module" transform="translate(383.000000, 0.000000)">
                    <g id="#-Pick-Token" transform="translate(154.000000, 28.000000)">
                        <g id="baseline-view_module-24px" transform="translate(375.000000, 163.000000)">
                            <path d="M0,20.3076923 L17.0588235,20.3076923 L17.0588235,0 L0,0 L0,20.3076923 Z M0,44 L17.0588235,44 L17.0588235,23.6923077 L0,23.6923077 L0,44 Z M20.4705882,44 L37.5294118,44 L37.5294118,23.6923077 L20.4705882,23.6923077 L20.4705882,44 Z M40.9411765,44 L58,44 L58,23.6923077 L40.9411765,23.6923077 L40.9411765,44 Z M20.4705882,20.3076923 L37.5294118,20.3076923 L37.5294118,0 L20.4705882,0 L20.4705882,20.3076923 Z M40.9411765,0 L40.9411765,20.3076923 L58,20.3076923 L58,0 L40.9411765,0 Z" id="Shape"></path>
                        </g>
                    </g>
                </g>
            </g>
        </g>
    </g>
</svg>
